!!!COM: Haydn, Franz Joseph
!!!OTL: String Quartet in E-flat Major
!!!OPS: Opus 71
!!!ONM: No. 3
!!!OMD: Andante con moto
!!!OMV: 2
!!!SCT: H III:71
!!!SCA: Thematisch-bibliographisches Werkevererzeichnis (A. van Hoboken)
!!!YOR: Trautwein Edition
!!!ENC: Frances Bennion
!!!CDT: 1732/3/31/-1809/5/31/
!!!CNT: Oesterreich
!!!YEC: Copyright (c) 1994, 2000 Center for Computer Assisted Research in the Humanities
!!!YEM: Rights to all derivative editions reserved.
!!!YEM: Refer to licensing agreement for further details.
!!!YEN: United States of America
**kern	**kern	**kern	**kern
*k[b-e-]	*k[b-e-]	*k[b-e-]	*k[b-e-]
*B-:	*B-:	*B-:	*B-:
*clefF4	*clefC3	*clefF	*clefF
*M2/4	*M2/4	*M2/4	*M2/4
4.r	4.r	4.r	4.r
8r	8r	8r	8f
=1	=1	=1	=1
[2B-	4d	[2f	8b-
.	.	.	8dd
.	4e-	.	8cc
.	.	.	8a
=2	=2	=2	=2
4B-]	4d	4f]	8b-
.	.	.	16dd
.	.	.	16b-
4r	4r	4r	8f
.	.	.	16.b-
.	.	.	32dd
=3	=3	=3	=3
[2B-	4d	4f	8ff
.	.	.	8dd
.	4c#	4e	8gg
.	.	.	8ee
=4	=4	=4	=4
4B-]	4d	4f	4.ff
4r	4r	4r	.
.	.	.	8f
=5	=5	=5	=5
4B-	4d	4f	8b-
.	.	.	8dd
4F#	8A	4e-	8cc
.	8c	.	8a
=6	=6	=6	=6
4.G	4.B-	4.d	8b-
.	.	.	16dd
.	.	.	16b-
.	.	.	8g
8E	8c	8g	8b-
=7	=7	=7	=7
8F	8c	8f	8a
8BB-	8d	8d	8g
8AA	8A	8d	8f
8AA	8A	8c#	8e
=8	=8	=8	=8
8D	4D	4.d	4.d
8AA	.	.	.
8DD	4r	.	.
8r	.	8r	16.f
.	.	.	32b
=9	=9	=9	=9
[2G	8B	8f	8dd
.	8d	8d	8b
.	8c	4f#	8ee-
.	8e-	.	8cc
=10	=10	=10	=10
2G_	4d	4g	8b
.	.	.	16dd
.	.	.	16b
.	4B	4d	8g
.	.	.	8gg
=11	=11	=11	=11
2G_	4c	4e-	8ff#
.	.	.	8aa
.	4A	4c	8dd
.	.	.	8ff#
=12	=12	=12	=12
2G]	8B	4d	4.gg
.	8d	.	.
.	8G	4b	.
.	8d	.	8ff
=13	=13	=13	=13
4C	8g	4.b-	8ee
.	8e	.	8gg
4F	8r	.	8cc
.	8c	8a	8ee-
=14	=14	=14	=14
4BB-	8f	4.a-	8dd
.	8d	.	8ff
[4E-	8r	.	8b-
.	8B-	8g	8ee-
=15	=15	=15	=15
4E-]	8B	8f	8dd
.	8c	8e-	8cc
8F	8f	8d	8b-
8F	16.A	8e-	16.cc
.	32c	.	32a
=16	=16	=16	=16
8B-	4.B-	4.d	4.b-
8F	.	.	.
8BB-	.	.	.
8r	8F	8r	8r
=17	=17	=17	=17
[2BB-	8B-	4r	4r
.	8d-	.	.
.	8c	4g-	4ee-
.	8A	.	.
=18	=18	=18	=18
4BB-]	8B-	8f	8dd-
.	8E-	8g-	16.cc
.	.	.	32a
4r	8D-	8f	8b-
.	8F	8r	8r
=19	=19	=19	=19
[2BB-	8d-	8B-	4r
.	8f	8d-	.
.	8e-	8c	4gg-
.	8c	8A	.
=20	=20	=20	=20
4BB-]	8d-	8B-	8ff
.	8e-	8c	8aa
8r	[4f	8d-	8bb-
8AA	.	8c	8ccc
=21	=21	=21	=21
4BB-	4f]	8B-	8ddd-
.	.	4dd-	8bb-
4B-	4g	.	8gg
.	.	8dd-	8ee
=22	=22	=22	=22
2A-	4f	4cc	8ff
.	.	.	8ccc
.	4a-	4r	8aa-
.	.	.	8ff
=23	=23	=23	=23
4B-	4.g	4dd-	8gg
.	.	.	16bb-
.	.	.	16r
4c	.	4b-	8ee
.	8e	.	16gg
.	.	.	16r
=24	=24	=24	=24
8r	4f	4a-	4.ff
8F	.	.	.
8FF	4r	4r	.
8r	.	.	16dd-
.	.	.	16ff
=25	=25	=25	=25
[2D-	4f	4a-	8aa-
.	.	.	8ff
.	4e	4g	8bb-
.	.	.	8gg
=26	=26	=26	=26
4D-]	4f	4a-	8aa-
.	.	.	8ff
4r	4r	4r	8dd-
.	.	.	16a-
.	.	.	16cc
=27	=27	=27	=27
[2A-	4c	4e-	8ee-
.	.	.	8cc
.	4B	4d	8ff
.	.	.	8dd
=28	=28	=28	=28
4.A-]	2c	2e-	8ee-
.	.	.	8cc
.	.	.	8a-
8G-	.	.	16b-
.	.	.	16cc
=29	=29	=29	=29
2F	4A-	4d-	8dd-
.	.	.	8ff
.	8c-	4d	8aa-
.	8A-	.	16ff
.	.	.	16dd
=30	=30	=30	=30
4G-	4G-	4B-	8ee-
.	.	.	8gg-
4G	[4d-	4e	8bb-
.	.	.	16gg
.	.	.	16ee
=31	=31	=31	=31
4.A-	4d-]	4f	8aa-
.	.	.	16ff
.	.	.	16dd-
.	8c	4g-	8gg-
8AA-	8e-	.	16ee-
.	.	.	16cc
=32	=32	=32	=32
8D-	4d-	4f	4dd-
8F	.	.	.
8E-	8r	4r	4r
8C	8F	.	.
=33	=33	=33	=33
[2BB-	8B-	4r	4r
.	8d-	.	.
.	8c	4g-	4ee-
.	8A	.	.
=34	=34	=34	=34
4BB-]	8B-	8f	8dd-
.	8E-	8g-	16.cc
.	.	.	32a
4r	8D-	8f	8b-
.	8F	8r	8r
=35	=35	=35	=35
[2BB-	8d-	8B-	4r
.	8f	8d-	.
.	8e-	8c	4gg-
.	8c	8A	.
=36	=36	=36	=36
8BB-]	8d-	4B-	8ff
8C	8e-	.	8aa
8D-	8f	[4ff	8bb-
8D	8B-	.	8aa-
=37	=37	=37	=37
4E-	8e-	4ff]	2gg-
.	16g-	.	.
.	16e-	.	.
4r	8cc	[4ee-	.
.	8b-	.	.
=38	=38	=38	=38
4.r	8a	4ee-]	2ff
.	16f	.	.
.	16a	.	.
.	4b-	16dd-	.
.	.	16ee-	.
8BB-	.	16dd-	.
.	.	16cc	.
=39	=39	=39	=39
8G-	8d-	4b-	4ee
16B-	8B-	.	.
16G-	.	.	.
8F	4c	4a	4ff
8FF	.	.	.
=40	=40	=40	=40
8BB-	4B-	4b-	4.b-
8F	.	.	.
8B-	4r	4r	.
8r	.	.	8f
=41	=41	=41	=41
[2B-	4d	[2f	8b-
.	.	.	8dd
.	4e-	.	8cc
.	.	.	8a
=42	=42	=42	=42
4B-]	4d	4f]	8b-
.	.	.	16dd
.	.	.	16b-
4r	4r	4r	8f
.	.	.	16.b-
.	.	.	32dd
=43	=43	=43	=43
[2B-	4d	4f	8ff
.	.	.	8dd
.	4c#	4e	8gg
.	.	.	8ee
=44	=44	=44	=44
4B-]	4d	4.f	4.ff
4r	4r	.	.
.	.	8r	8f
=45	=45	=45	=45
4B-	4d	4f	8b-
.	.	.	8dd
4F#	8A	4e-	8cc
.	8c	.	8a
=46	=46	=46	=46
4.G	4.B-	4.d	8b-
.	.	.	16dd
.	.	.	16b-
.	.	.	8g
8E	8c	8g	8b-
=47	=47	=47	=47
8F	8c	8f	8a
8BB-	8d	8d	8g
8AA	8A	8d	8f
8AA	8A	8c#	8e
=48	=48	=48	=48
8D	4D	4d	4.d
8AA	.	.	.
8DD	4r	4r	.
8r	.	.	16.f
.	.	.	32b
=49	=49	=49	=49
[2G	8B	8f	8dd
.	8d	8d	8b
.	8c	4f#	8ee-
.	8e-	.	8cc
=50	=50	=50	=50
2G_	4d	4g	8b
.	.	.	16dd
.	.	.	16b
.	4B	4d	8g
.	.	.	8gg
=51	=51	=51	=51
2G_	4c	4e-	8ff#
.	.	.	8aa
.	4A	4c	8dd
.	.	.	8ff#
=52	=52	=52	=52
2G]	8B	4d	4.gg
.	8d	.	.
.	8G	4b	.
.	8d	.	8ff
=53	=53	=53	=53
4C	8g	4.b-	8ee
.	8e	.	8gg
4F	8r	.	8cc
.	8c	8a	8ee-
=54	=54	=54	=54
4BB-	8f	4.a-	8dd
.	8d	.	8ff
[4E-	8r	.	8b-
.	8B-	8g	8ee-
=55	=55	=55	=55
4E-]	8B	8f	8dd
.	8c	8e-	8cc
8F	8f	8d	8b-
8F	16.A	8e-	16.cc
.	32c	.	32a
=56	=56	=56	=56
8B-	4.B-	4.d	4.b-
8F	.	.	.
8BB-	.	.	.
8r	8r	8r	8ff
=57	=57	=57	=57
8BB-	8d	8f	24bb-
.	.	.	24ff
.	.	.	24ee-
8r	8r	8r	24dd
.	.	.	24cc
.	.	.	24b-
8F	8c	8e- 8a	24a
.	.	.	24g
.	.	.	24f
8r	8r	8r	24e-
.	.	.	24d
.	.	.	24c
=58	=58	=58	=58
8B-	4d	4b- 4d	24B-
.	.	.	24d
.	.	.	24e-
4.r	.	.	24f
.	.	.	24e-
.	.	.	24d
.	4r	4r	24b-
.	.	.	24f
.	.	.	24b-
.	.	.	24dd
.	.	.	24b-
.	.	.	24dd
=59	=59	=59	=59
[2B-	4d	4f	24ff
.	.	.	24aa
.	.	.	24bb-
.	.	.	24ff
.	.	.	24aa
.	.	.	24bb-
.	4c#	4e	24gg
.	.	.	24aa
.	.	.	24bb-
.	.	.	24gg
.	.	.	24aa
.	.	.	24bb-
=60	=60	=60	=60
4B-]	4d	4f	24ff
.	.	.	24gg
.	.	.	24ff
.	.	.	24ee-
.	.	.	24dd
.	.	.	24cc
4r	4r	4r	24b-
.	.	.	24dd
.	.	.	24ee-
.	.	.	24ff
.	.	.	24gg
.	.	.	24aa
=61	=61	=61	=61
8BB-	8B-	8d	24bb-
.	.	.	24ff
.	.	.	24ee-
8r	8r	8r	24dd
.	.	.	24cc
.	.	.	24b-
8F#	8c	8e-	24a
.	.	.	24g
.	.	.	24f#
8r	8r	8r	24e-
.	.	.	24d
.	.	.	24c
=62	=62	=62	=62
4G	4B-	4d	24B-
.	.	.	24d
.	.	.	24g
.	.	.	24b-
.	.	.	24dd
.	.	.	24gg
8r	8r	8r	24bb-
.	.	.	24aa
.	.	.	24bb-
8E	8e	8g	24ddd
.	.	.	24ccc
.	.	.	24bb-
=63	=63	=63	=63
8F	8f	8a	24aa
.	.	.	24bb-
.	.	.	24ccc
8B-	8g	8d	24bb-
.	.	.	24aa
.	.	.	24gg
8A	8d	8f	24ff
.	.	.	24gg
.	.	.	24aa
8AA	8e	8c#	24gg
.	.	.	24ff
.	.	.	24ee
=64	=64	=64	=64
4D	4f	4d	24dd
.	.	.	24a
.	.	.	24g
.	.	.	24f
.	.	.	24g
.	.	.	24a
4r	4r	4r	8d
.	.	.	8f
=65	=65	=65	=65
[2G	8B	4f	24dd
.	.	.	24b
.	.	.	24gg
.	8d	.	24ff
.	.	.	24dd
.	.	.	24b
.	4e-	4f#	24cc
.	.	.	24a
.	.	.	24ff#
.	.	.	24ee-
.	.	.	24cc
.	.	.	24a
=66	=66	=66	=66
2G_	4d	4g	24b
.	.	.	24cc
.	.	.	24dd
.	.	.	24cc
.	.	.	24b
.	.	.	24a
.	4B	4d	24g
.	.	.	24b
.	.	.	24dd
.	.	.	24gg
.	.	.	24ff#
.	.	.	24gg
=67	=67	=67	=67
2G_	4c	4e-	24ff#
.	.	.	24gg
.	.	.	24aa
.	.	.	24ff#
.	.	.	24gg
.	.	.	24aa
.	4A	4c	24dd
.	.	.	24ee
.	.	.	24ff#
.	.	.	24dd
.	.	.	24ee
.	.	.	24ff#
=68	=68	=68	=68
2G]	4B	4d	24gg
.	.	.	24aa
.	.	.	24ff#
.	.	.	24gg
.	.	.	24aa
.	.	.	24ff#
.	4d	4b	24gg
.	.	.	24b
.	.	.	24cc
.	.	.	24dd
.	.	.	24ee
.	.	.	24ff
=69	=69	=69	=69
4C	8g	4.b-	24ee
.	.	.	24gg
.	.	.	24aa
.	8e	.	24bb-
.	.	.	24gg
.	.	.	24ee
4F	8r	.	24cc
.	.	.	24dd
.	.	.	24ee
.	8c	8a	24ff
.	.	.	24cc
.	.	.	24ee-
=70	=70	=70	=70
4BB-	8f	4.a-	24dd
.	.	.	24ff
.	.	.	24gg
.	8d	.	24aa-
.	.	.	24ff
.	.	.	24dd
4E-	8r	.	24b-
.	.	.	24cc
.	.	.	24dd
.	[8B-	8g	24ee-
.	.	.	24b-
.	.	.	24gg
=71	=71	=71	=71
8D	8B-]	8r	24ff
.	.	.	24dd
.	.	.	24bb-
8E-	4B-	8g	24gg
.	.	.	24ee-
.	.	.	24cc
8F	.	8f	24dd
.	.	.	24ff
.	.	.	24b-
8F	24A	8e- 8a 8c	24ee-
.	24c	.	24cc
.	24e-	.	24a
=72	=72	=72	=72
4BB-	4d	4B- 4d 4b-	24b-
.	.	.	24f
.	.	.	24e-
.	.	.	24d
.	.	.	24e-
.	.	.	24f
8r	4r	4r	8B-
8FF	.	.	8r
=73	=73	=73	=73
8BB-	8D-	8r	2r
8D-	8F	8.B-	.
8C	8E-	.	.
.	.	16A	.
8AA	8C	16c	.
.	.	16e-	.
=74	=74	=74	=74
8BB-	4D-	4d-	4.r
16D-	.	.	.
16BB-	.	.	.
16FF	4r	8r	.
16BB-	.	.	.
16C	.	[8f	8B-
16D-	.	.	.
=75	=75	=75	=75
16E-	2B-	4f]	[2g-
16G-	.	.	.
16B-	.	.	.
16A-	.	.	.
16G-	.	[4e-	.
16F	.	.	.
16E-	.	.	.
16D-	.	.	.
=76	=76	=76	=76
8C	[2A-	4.e-]	16g-]
.	.	.	16f
16E-	.	.	16g-
16C	.	.	16a-
8AA-	.	.	8b-
8C	.	[8e-	8g-
=77	=77	=77	=77
8D-	4A-]	8e-]	4f
16AA-	.	4d-	.
16D-	.	.	.
8E-	4r	.	4g-
16AA-	.	8c	.
16E-	.	.	.
=78	=78	=78	=78
8F	4d-	4c-	4.a-
16AA-	.	.	.
16F	.	.	.
16G-	8G-	8B-	.
16F	.	.	.
16E-	8B-	[8e-	[8g-
16D-	.	.	.
=79	=79	=79	=79
16C	4A-	8e-]	8g-]
16AA-	.	.	.
16D-	.	4d-	8f
16FF	.	.	.
16GG-	8B-	.	4e-
16EE-	.	.	.
16AA-	16A-	8c	.
16AA-	16G-	.	.
=80	=80	=80	=80
8DD-	4F	4d-	4d-
16FF	.	.	.
16AA-	.	.	.
8D-	4r	8r	4r
8r	.	8A-	.
=81	=81	=81	=81
16r	2r	8d-	4.r
16DD-	.	.	.
16EE-	.	8f	.
16FF	.	.	.
16GG-	.	8e-	.
16BB-	.	.	.
16AA-	.	8c	8A-
16GG-	.	.	.
=82	=82	=82	=82
16FF	2r	4.d-	8f
16AA-	.	.	.
16D-	.	.	8a-
16F	.	.	.
16E-	.	.	8g-
16B-	.	.	.
16A-	.	8c	8e-
16G-	.	.	.
=83	=83	=83	=83
16F	2r	8d-	8f
16G-	.	.	.
16F	.	8e-	8g-
16E-	.	.	.
16D-	.	8f	4a-
16E-	.	.	.
16D-	.	8e-	.
16C-	.	.	.
=84	=84	=84	=84
16BB-	4F	2d	8a-
16C-	.	.	.
16BB-	.	.	8cc-
16AA-	.	.	.
16GG-	8G-	.	8b-
16AA-	.	.	.
16GG-	8A-	.	8a-
16FF	.	.	.
=85	=85	=85	=85
16EE-	4B-	8e-	16g-
16DD	.	.	16a-
16EE-	.	4B-	16g-
16FF	.	.	16f
16GG-	4r	.	16e-
16FF	.	.	16d-
16EE-	.	8B-	16c
16EE	.	.	16B-
=86	=86	=86	=86
[2FF	16A	16A	4f
.	16c	16e-	.
.	16B-	16d-	.
.	16A	16c	.
.	4B-	4d-	16e
.	.	.	16b-
.	.	.	16g
.	.	.	16e
=87	=87	=87	=87
2FF]	16A	16c	4f
.	16c	16e-	.
.	16B-	16d-	.
.	16A	16c	.
.	4B-	4d-	16e
.	.	.	16b-
.	.	.	16g
.	.	.	16e
=88	=88	=88	=88
2F	16A	16c	[6..f
.	16B	16d	.
.	16c	16e-	.
.	16B	16d	.
.	4c	4e-	.
.	.	.	48f]
.	.	.	16g-
.	.	.	16g
.	.	.	16a
=89	=89	=89	=89
4BB-	8B-	16d	8b-
.	.	16f	.
.	8B-	16d	8dd
.	.	16f	.
4r	8B-	16e-	8cc
.	.	16f	.
.	8B-	16e-	8a
.	.	16f	.
=90	=90	=90	=90
2r	8B-	16d	8b-
.	.	16f	.
.	8B-	16d	16dd
.	.	16f	16b-
.	8B-	16d	16f
.	.	16d	16b-
.	8B-	16f	16dd
.	.	16b-	16ff
=91	=91	=91	=91
2r	16b-	16dd	16bb-
.	16b-	16ff	16ddd
.	16b-	16dd	16fff
.	16b-	16ff	16ddd
.	16b-	16ee-	16ggg
.	16b-	16gg	16eee-
.	16b-	16ee-	16bbb-
.	16b-	16eee-	16ggg
=92	=92	=92	=92
2r	16b-	16ddd	16fff
.	16b-	16eee-	16ggg
.	16b-	16ddd	16fff
.	16b-	16ccc	16eee-
.	8b-	16bb-	16ddd
.	.	16ddd	16fff
.	16ee-	16ccc	16eee-
.	16ee	16bb-	16ddd
=93	=93	=93	=93
2r	16ff	16aa	16ccc
.	16ee	16bb-	16ddd
.	16ff	16aa	16ccc
.	16ee	16bb-	16ddd
.	16ff	16aa	16ccc
.	16b-	16ddd	16fff
.	16ee-	16ccc	16eee-
.	16ee	16bb-	16ddd
=94	=94	=94	=94
2r	16ff	16aa	16ccc
.	16ee-	16bb-	16ddd
.	16ff	16aa	16ccc
.	16ee-	16bb-	16ddd
.	16ff	16aa	16ccc
.	16a	16ccc	16eee-
.	16cc	16bb-	16ddd
.	16ff	16aa	16ccc
=95	=95	=95	=95
2r	16b-	16bb-	16ddd
.	16cc	16aa	16ccc
.	16dd	16gg	16bb-
.	16b-	16bb-	16ddd
.	16cc	16aa	16ccc
.	16dd	16ff	16aa
.	16b-	16gg	16bb-
.	16cc	16ee	16gg
=96	=96	=96	=96
2r	16f	16ff	16ff
.	16a	16a	16aa
.	16cc	16cc	16ccc
.	16a	16a	16aa
.	16f	16f	16ff
.	16g	16b-	16ee-
.	16f	16a	16dd
.	16e-	16g	16cc
=97	=97	=97	=97
8BB-	16d	16f	8b-
.	16f	16d	.
8BB-	16d	16f	8dd
.	16f	16d	.
8BB-	16e-	16g-	8cc
.	16g-	16e-	.
8BB-	16e-	16g-	8a
.	16g-	16e-	.
=98	=98	=98	=98
4BB-	16d	16f	8b-
.	16f	16d	.
.	16d	16f	16dd
.	16f	16d	16b-
4r	16d	16f	16f
.	16B-	16d	16b-
.	16B-	16f	16dd
.	16B-	16b-	16ff
=99	=99	=99	=99
2r	16b-	16dd	16bb-
.	16b-	16ff	16ddd
.	16b-	16dd	16fff
.	16b-	16ff	16ddd
.	16b-	16ee-	16ggg
.	16b-	16gg	16eee-
.	16b-	16ee-	16bbb-
.	16b-	16eee-	16ggg
=100	=100	=100	=100
2r	16b-	16ddd	16fff
.	16b-	16eee-	16ggg
.	16b-	16ddd	16fff
.	16b-	16ccc	16eee-
.	8b-	16bb-	16ddd
.	.	16ddd	16fff
.	16ee-	16ccc	16eee-
.	16ee	16bb-	16ddd
=101	=101	=101	=101
2r	16ff	16aa	16ccc
.	16ee	16bb-	16ddd
.	16ff	16aa	16ccc
.	16ee	16bb-	16ddd
.	16ff	16aa	16ccc
.	16b-	16ddd	16fff
.	16ee-	16ccc	16eee-
.	16ee	16bb-	16ddd
=102	=102	=102	=102
2r	16ff	16aa	16ccc
.	16ee	16bb-	16ddd
.	16ff	16aa	16ccc
.	16ee	16bb-	16ddd
.	16ff	16aa	16ccc
.	16a	16ccc	16eee-
.	16cc	16bb-	16ddd
.	16ff	16aa	16ccc
=103	=103	=103	=103
2r	16b-	16bb-	16ddd
.	16cc	16aa	16ccc
.	16dd	16gg	16bb-
.	16b-	16bb-	16ddd
.	16cc	16aa	16ccc
.	16dd	16ff	16aa
.	16b-	16gg	16bb-
.	16cc	16ee	16gg
=104	=104	=104	=104
2r	16f	16ff	16ff
.	16a	16cc	16aa
.	16cc	16a	16ccc
.	16a	16cc	16aa
.	8f	16ff	16ff
.	.	16ee	16gg
.	8r	16ff	16aa
.	.	16gg	16bb-
=105	=105	=105	=105
2r	16ff	16aa	16ccc
.	16ee	16bb-	16ddd
.	16ff	16aa	16ccc
.	16ee	16bb-	16ddd
.	16ff	16aa	16ccc
.	16a	16ccc	16eee-
.	16cc	16bb-	16ddd
.	16ff	16aa	16ccc
=106	=106	=106	=106
2r	16b-	16bb-	16ddd
.	16f	16ccc	16eee-
.	16b-	16bb-	16ddd
.	16f	16ccc	16eee-
.	16b-	16bb-	16ddd
.	16b-	16ddd	16fff
.	16cc	16ccc	16eee-
.	16dd	16bb-	16ddd
=107	=107	=107	=107
2r	16ee-	16gg	16ccc
.	16ff	16aa-	16bb
.	16ee-	16gg	16ccc
.	16ff	16aa-	16bb
.	16ee-	16gg	16ccc
.	16dd	16ff	16bb-
.	16cc	16ee-	16aa
.	16b-	16dd	16bb-
=108	=108	=108	=108
2r	4f	16cc	16aa
.	.	16b-	16gg
.	.	16a	16ff
.	.	16b-	16gg
.	4r	16a	16ff
.	.	16cc	16ee-
.	.	16b-	16dd
.	.	16a	16cc
=109	=109	=109	=109
8BB-	16d	16b-	8b-
.	16f	16d	.
8BB-	16d	16f	8dd
.	16f	16d	.
8BB-	16e-	16g-	8cc
.	16g-	16e-	.
8BB-	16e-	16g-	8a
.	16g-	16e-	.
=110	=110	=110	=110
4BB-	16d	16f	8b-
.	16f	16d	.
.	16d	16f	16dd
.	16f	16d	16b-
4r	8d	8f	8f
.	8r	8r	16b-
.	.	.	16dd
=111	=111	=111	=111
[2B-	4d	4f	8ff
.	.	.	8dd
.	4c#	4e	8gg
.	.	.	8ee
=112	=112	=112	=112
4B-]	8d	4f	4ff
.	4r	.	.
4r	.	4r	4r
.	16B-	.	.
.	16d	.	.
=113	=113	=113	=113
2r	8f	8r	8r
.	8d	4bb-	4ddd
.	8g	.	.
.	8e	16aa	16ccc
.	.	16gg	16bb-
=114	=114	=114	=114
4.r	8f	8ff	8aa
.	8b-	8ee	8gg
.	8a	8ff	8ff
16AA	8r	8r	8r
16C	.	.	.
=115	=115	=115	=115
8E-	2r	8r	8r
8C	.	4ee-	4gg
8A	.	.	.
8F	.	16dd	16ff
.	.	16cc	16ee-
=116	=116	=116	=116
8B-	4.f	8b-	8dd
8c	.	8e-	8cc
8d	.	8d	8b-
8D	8B-	8f	8a
=117	=117	=117	=117
8E-	16.B-	4g	16.g
.	32c	.	32a
8E	16.d-	.	16.b-
.	32d-	.	32cc
8F	8d	8f	8b-
8F	8e-	8c	8a
=118	=118	=118	=118
4BB-	4d	4d	4b-
4r	4r	4r	4r
=119	=119	=119	=119
2r	2r	2r	4.r
.	.	.	16f
.	.	.	16a
=120	=120	=120	=120
[2F	4A	4c	8cc
.	.	.	8a
.	4G#	4B	8dd
.	.	.	8b
=121	=121	=121	=121
4F]	4A	4c	8cc
.	.	.	8a
4r	4r	4r	8f
.	.	.	8r
=122	=122	=122	=122
8C	2r	2r	4.r
8AA	.	.	.
8FF	.	.	.
8r	.	.	16b-
.	.	.	16dd
=123	=123	=123	=123
[2B-	4d	4f	8ff
.	.	.	8dd
.	4c#	4e	8gg
.	.	.	8ee
=124	=124	=124	=124
4B-]	4d	4f	8ff
.	.	.	8dd
4r	4r	4r	8b-
.	.	.	8r
=125	=125	=125	=125
8F	4.r	2r	2r
8D	.	.	.
8BB-	.	.	.
8r	16B-	.	.
.	16d	.	.
=126	=126	=126	=126
2r	8f	8r	8r
.	8d	4bb-	4ddd
.	8g	.	.
.	8e	16aa	16ccc
.	.	16gg	16bb-
=127	=127	=127	=127
4.r	8f	8ff	8aa
.	8b-	8ee	8gg
.	8a	8ff	8ff
16AA	8r	8r	8r
16C	.	.	.
=128	=128	=128	=128
8E-	2r	8r	8r
8C	.	4ee-	4gg
8A	.	.	.
8F	.	16dd	16ff
.	.	16cc	16ee-
=129	=129	=129	=129
8B-	4.f	8b-	8dd
8c	.	8e-	8cc
8d	.	8d	8b-
8D	8B-	8f	8a
=130	=130	=130	=130
8E-	16.B-	4g	16.g
.	32c	.	32a
8E	16.d-	.	16.b-
.	32d-	.	32cc
8F	8d	8f	8b-
8F	8e-	8c	8a
=131	=131	=131	=131
8BB-	8d	8d	8b-
8BB-	8r	8r	8r
8BB-	8c#	8e	16.gg
.	.	.	32ee
8BB-	8c#	8e	16.gg
.	.	.	32ee
=132	=132	=132	=132
8BB-	8d	8f	8ff
8BB-	8r	8r	8r
8BB-	8G-	16.c	16.e-
.	.	32A	32c
8BB-	8G-	16.c	16.e-
.	.	32A	32c
=133	=133	=133	=133
8BB-	8F	8B-	8d
8BB-	8r	8r	8r
8BB-	8c#	8e	16.gg
.	.	.	32ee
8BB-	8c#	8e	16.gg
.	.	.	32ee
=134	=134	=134	=134
8BB-	8d	8f	8ff
8BB-	8r	8r	8r
8BB-	8G-	16.c	16.e-
.	.	32A	32c
8BB-	8G-	16.c	16.e-
.	.	32A	32c
=135	=135	=135	=135
8BB-	8F	8B-	8d
8r	8r	8r	8r
8BB-	8B- 8F 8d	8b- 8d	8bb- 8b- 8d
8r	8r	8r	8r
=136	=136	=136	=136
4BB-	4B- 4d 4F	4d 4b-	4B- 4d
4r	4r	4r	4r
==	==	==	==
*-	*-	*-	*-
!!!RWG1: This file contains only pitch and duration data.
!!!RWG2: Transposing instruments are not transposed.
!!!RWG3: Spines may have incompatible meters.
!!!RWG4: Durations of rests and tied notes may be interpreted.
!!!RWG: Key is interpreted using the Humdrum key tool.
!!!GTL: 6 Quartetti ("Apponyi")
!!!AFT: stage1
!!!END: 1997/04/15
!!!KEY: 3361954247
!!!EMD: Converted from MuseData to Humdrum Dec 16, 2000, by Andreas Kornstaedt using muse2kern.
!!!EMD: Manual editing by Craig Sapp, Nov 2001
